!!!OTL: Lass fragen sein.
!!!ARE: Europa, Mitteleuropa, Deutschland
!!!SCT: A0483
!!!TXL: @@GMH
!!!YEM: Copyright 1995, estate of Helmut Schaffrath.
**kern	**text
*M4/4	*
*met(c)	*
*clefC1	*
*k[b-]	*
*F:	*
=1	=1
!LO:TX:a:t=F dur.	!
2ryy	.
4ryy	.
{4c	Wo
=2	=2
4f	find
4f	ich
4f	dann
4g/	deins
=3	=3
4a	va-
4bn	-ters
2cc}	haus?
=4	=4
{4.dd	ſän-
8cc	-ber-
4b-	-li-
4a	-ches
=5	=5
2g	mägdlein?
2a}	.
=6||	=6||
{4cc	Geh
4b-	das
4a	gäß-
4g	-lein
=7	=7
4.a	auß
8a	und
4g}	auß,
{4a	ſo
=8	=8
4cc	fin-
4b-	-deſt
4a	du
4g	meins
=9	=9
4.a	va-
8a	-ters
4g}	haus.
{4a	Schweig
=10	=10
2b-	ſtill,
4r	.
4dd	ſchweig
=11	=11
2cc	ſtill,
4r}	.
{4cc	ſchweig
=12	=12
4cc	ſtill
4a	vnd
4g/	laß
4f	dein
=13	=13
2g	fra-
2g	-gen
=14	=14
0all}	ſein!
==	==
!!!GTL: Scherz-, Spott- und Schandlieder
!!!AGN: Romanze, Ballade, Lied
!! M. Franck, Musikal. Convinium 1621 No. 23.
!!!ONB: ESAC (Essen Associative Code) Database: ALTDEU
!!!AMT: simple quadruple
!!!AIN: vox
!!!EED: Helmut Schaffrath
!!!EEV: 1.0
!!!RDF**kern: l = terminal long
!!!URL-scan: https://rosdok.uni-rostock.de/mcrviewer/recordIdentifier/rosdok_ppn738218359/iview2/phys_0670.iview2?x=-1272.8135649766991&y=1666.1391336200759&scale=0.3197610882076923&rotation=0&layout=singlePageLayout&logicalDiv=log_0018
!!!ENC: Anna Maria Matuszewska
!!!EEV: 2024/19/03
*-	*-
